i.svg

<?xml version="1.0" encoding="UTF-8"?>
<svg width="60px" height="55px" viewBox="0 0 60 55" version="1.1" xmlns="http://www.w3.org/2000/svg" xmlns:xlink="http://www.w3.org/1999/xlink">
    <title>cat</title>
    <defs>
        <linearGradient x1="50%" y1="0%" x2="50%" y2="100%" id="linearGradient-1">
            <stop stop-color="#4A09F2" offset="0%"></stop>
            <stop stop-color="#410AF2" offset="100%"></stop>
        </linearGradient>
        <linearGradient x1="0%" y1="81.3593876%" x2="100%" y2="50%" id="linearGradient-2">
            <stop stop-color="#0019F4" offset="0%"></stop>
            <stop stop-color="#7200F1" offset="100%"></stop>
        </linearGradient>
        <linearGradient x1="0%" y1="100%" x2="100%" y2="50%" id="linearGradient-3">
            <stop stop-color="#0019F4" offset="0%"></stop>
            <stop stop-color="#7200F1" offset="100%"></stop>
        </linearGradient>
    </defs>
    <g id="页面-1" stroke="none" stroke-width="1" fill="none" fill-rule="evenodd">
        <g id="Flashcat-logo" transform="translate(-10.000000, -12.500000)">
            <g id="cat" transform="translate(10.010833, 12.499635)">
                <path d="M32.8798871,0.0310862956 C34.2436322,0.246874989 35.1742347,1.52734007 34.958446,2.89108511 C34.5317479,5.58773881 33.516478,7.47766377 31.8853969,9.18807544 L30.4992137,10.5532416 C29.951482,11.1141558 29.7495364,11.5674803 30.2340233,12.7098562 L30.4652353,13.2054443 C30.5101414,13.2947967 30.5583002,13.3876836 30.6098126,13.4843411 L30.9599377,14.1114212 L31.6466357,15.2465016 L32.2191731,16.1493851 C32.9652988,17.3111345 32.6283691,18.8577729 31.4666197,19.6038986 C30.3048702,20.3500242 28.7582319,20.0130946 28.0121062,18.8513451 C24.3080268,13.0839358 24.075209,9.97519081 26.9218928,7.05999449 L28.2669453,5.73745107 C29.2327356,4.72468792 29.7619978,3.73946631 30.0198883,2.10964512 C30.2202636,0.843310448 31.3386506,-0.0495492743 32.5892884,0.00213273484 L32.8798871,0.0310862956 Z" id="尾巴" fill="url(#linearGradient-1)" fill-rule="nonzero"></path>
                <path d="M51.2391672,7.50036511 C53.3107964,7.50036511 55.3824256,14.6416667 56.90781,22.0051696 L57.0610295,22.7544969 C57.7670677,26.2524166 58.3459087,29.7475561 58.7391672,32.5003651 C59.5418812,38.1193633 59.9579853,45.2848011 59.9874796,53.9966784 C59.9895146,54.5489594 59.543453,54.9983222 58.991172,55.0003583 C58.9905851,55.0003605 58.9899982,55.0003621 58.9894113,55.0003651 L0.988923014,55.0003651 C0.436639292,54.9992996 -0.0102128279,54.5507228 -0.00914912749,53.9984391 L-0.00914526996,53.9966784 C0.0203489833,45.2848011 0.436453125,38.1193633 1.23916715,32.5003651 C2.48916715,23.7503651 5.61416715,7.50036511 8.73916715,7.50036511 C10.8225005,7.50036511 13.3225005,10.8336984 16.2391672,17.5003651 C21.2391672,15.8336984 25.8225005,15.0003651 29.9891672,15.0003651 C34.1558338,15.0003651 38.7391672,15.8336984 43.7391672,17.5003651 C46.6558338,10.8336984 49.1558338,7.50036511 51.2391672,7.50036511 Z M14.3641672,29.3753651 C8.49614169,29.3753651 3.73916715,33.5726956 3.73916715,38.7503651 C3.73916715,43.9280346 8.49614169,48.1253651 14.3641672,48.1253651 C20.2321926,48.1253651 24.9891672,43.9280346 24.9891672,38.7503651 C24.9891672,33.5726956 20.2321926,29.3753651 14.3641672,29.3753651 Z M45.6141672,29.3753651 C39.7461417,29.3753651 34.9891672,33.5726956 34.9891672,38.7503651 C34.9891672,43.9280346 39.7461417,48.1253651 45.6141672,48.1253651 C51.4821926,48.1253651 56.2391672,43.9280346 56.2391672,38.7503651 C56.2391672,33.5726956 51.4821926,29.3753651 45.6141672,29.3753651 Z" id="形状结合" fill="url(#linearGradient-2)"></path>
                <path d="M15.6141672,31.8753651 C19.4111248,31.8753651 22.4891672,34.9534075 22.4891672,38.7503651 C22.4891672,42.5473228 19.4111248,45.6253651 15.6141672,45.6253651 C11.8172095,45.6253651 8.73916715,42.5473228 8.73916715,38.7503651 C8.73916715,34.9534075 11.8172095,31.8753651 15.6141672,31.8753651 Z M16.8641672,35.0003651 C15.1382773,35.0003651 13.7391672,36.3994753 13.7391672,38.1253651 C13.7391672,39.851255 15.1382773,41.2503651 16.8641672,41.2503651 C18.590057,41.2503651 19.9891672,39.851255 19.9891672,38.1253651 C19.9891672,36.3994753 18.590057,35.0003651 16.8641672,35.0003651 Z" id="眼球" fill="url(#linearGradient-3)"></path>
                <path d="M44.3641672,31.8753651 C48.1611248,31.8753651 51.2391672,34.9534075 51.2391672,38.7503651 C51.2391672,42.5473228 48.1611248,45.6253651 44.3641672,45.6253651 C40.5672095,45.6253651 37.4891672,42.5473228 37.4891672,38.7503651 C37.4891672,34.9534075 40.5672095,31.8753651 44.3641672,31.8753651 Z M43.1141672,35.0003651 C41.3882773,35.0003651 39.9891672,36.3994753 39.9891672,38.1253651 C39.9891672,39.851255 41.3882773,41.2503651 43.1141672,41.2503651 C44.840057,41.2503651 46.2391672,39.851255 46.2391672,38.1253651 C46.2391672,36.3994753 44.840057,35.0003651 43.1141672,35.0003651 Z" id="眼球" fill="url(#linearGradient-3)"></path>
            </g>
        </g>
    </g>
</svg>

<svg xmlns="http://www.w3.org/2000/svg" width="60" height="55" xmlns:v="https://vecta.io/nano"><defs><linearGradient x1="50%" y1="0%" x2="50%" y2="100%" id="A"><stop stop-color="#4a09f2" offset="0%"/><stop stop-color="#410af2" offset="100%"/></linearGradient><linearGradient x1="0%" y1="81.3593876%" x2="100%" y2="50%" id="B"><stop stop-color="#0019f4" offset="0%"/><stop stop-color="#7200f1" offset="100%"/></linearGradient><linearGradient x1="0%" y1="100%" x2="100%" y2="50%" id="C"><stop stop-color="#0019f4" offset="0%"/><stop stop-color="#7200f1" offset="100%"/></linearGradient></defs><g transform="translate(.011)" fill-rule="evenodd"><path d="M32.88.031a2.5 2.5 0 0 1 2.079 2.86c-.427 2.697-1.442 4.587-3.073 6.297l-1.386 1.365c-.548.561-.75 1.014-.265 2.157l.231.496.145.279.35.627.687 1.135.573.903a2.5 2.5 0 0 1-4.207 2.702c-3.704-5.767-3.937-8.876-1.09-11.791l1.345-1.323c.966-1.013 1.495-1.998 1.753-3.628A2.5 2.5 0 0 1 32.589.002l.291.029z" fill="url(#A)" fill-rule="nonzero"/><path d="M51.239 7.5c2.072 0 4.143 7.141 5.669 14.505l.153.749c.706 3.498 1.285 6.993 1.678 9.746.803 5.619 1.219 12.784 1.248 21.496A1 1 0 0 1 58.991 55H.989a1 1 0 0 1-.998-1.002v-.002C.02 45.285.436 38.119 1.239 32.5c1.25-8.75 4.375-25 7.5-25 2.083 0 4.583 3.333 7.5 10 5-1.667 9.583-2.5 13.75-2.5s8.75.833 13.75 2.5c2.917-6.667 5.417-10 7.5-10zM14.364 29.375c-5.868 0-10.625 4.197-10.625 9.375s4.757 9.375 10.625 9.375 10.625-4.197 10.625-9.375-4.757-9.375-10.625-9.375zm31.25 0c-5.868 0-10.625 4.197-10.625 9.375s4.757 9.375 10.625 9.375 10.625-4.197 10.625-9.375-4.757-9.375-10.625-9.375z" fill="url(#B)"/><g fill="url(#C)"><path d="M15.614 31.875c3.797 0 6.875 3.078 6.875 6.875s-3.078 6.875-6.875 6.875-6.875-3.078-6.875-6.875 3.078-6.875 6.875-6.875zM16.864 35c-1.726 0-3.125 1.399-3.125 3.125s1.399 3.125 3.125 3.125 3.125-1.399 3.125-3.125S18.59 35 16.864 35z"/><path d="M44.364 31.875c3.797 0 6.875 3.078 6.875 6.875s-3.078 6.875-6.875 6.875-6.875-3.078-6.875-6.875 3.078-6.875 6.875-6.875zM43.114 35c-1.726 0-3.125 1.399-3.125 3.125s1.399 3.125 3.125 3.125 3.125-1.399 3.125-3.125S44.84 35 43.114 35z"/></g></g></svg>
